svgs/sharp-solid/vector-square.svg

<svg xmlns="http://www.w3.org/2000/svg" viewBox="0 0 448 512"><!--! Font Awesome Pro 6.6.0 by @fontawesome - https://fontawesome.com License - https://fontawesome.com/license (Commercial License) Copyright 2024 Fonticons, Inc. --><path d="M400 80l0 32-32 0 0-32 32 0zM368 32l-48 0 0 32L128 64l0-32L80 32 48 32 0 32 0 80l0 32 0 48 32 0 0 192L0 352l0 48 0 32 0 48 48 0 32 0 48 0 0-32 192 0 0 32 48 0 32 0 48 0 0-48 0-32 0-48-32 0 0-192 32 0 0-48 0-32 0-48-48 0-32 0zM96 160l32 0 0-32 192 0 0 32 32 0 0 192-32 0 0 32-192 0 0-32-32 0 0-192zM80 400l0 32-32 0 0-32 32 0zm288 0l32 0 0 32-32 0 0-32zM48 80l32 0 0 32-32 0 0-32z"/></svg>

<svg xmlns="http://www.w3.org/2000/svg" viewBox="0 0 448 512"><!--! Font Awesome Pro 6.5.2 by @fontawesome - https://fontawesome.com License - https://fontawesome.com/license (Commercial License) Copyright 2024 Fonticons, Inc. --><path d="M400 80v32H368V80h32zM368 32H320V64H128V32H80 48 0V80v32 48H32V352H0v48 32 48H48 80h48V448H320v32h48 32 48V432 400 352H416V160h32V112 80 32H400 368zM96 160h32V128H320v32h32V352H320v32H128V352H96V160zM80 400v32H48V400H80zm288 0h32v32H368V400zM48 80H80v32H48V80z"/></svg>
